packages/katcn/src/icons/svg/arrow2.svg

<svg width="24" height="25" viewBox="0 0 24 25" fill="none" xmlns="http://www.w3.org/2000/svg">
<path d="M13.8555 20.296H4.74547C3.65623 20.296 2.66602 19.596 2.26993 18.596C1.77482 17.496 1.97286 16.096 2.76504 15.196L5.3396 12.296L2.76504 9.39599C1.97286 8.49599 1.77482 7.09599 2.26993 5.99599C2.76504 4.89599 3.65623 4.29599 4.74547 4.29599H13.8555C15.0437 4.29599 16.133 4.79599 17.0242 5.69599L21.1831 10.096C22.2723 11.296 22.2723 13.196 21.1831 14.396L17.0242 18.896C16.133 19.796 15.0437 20.296 13.8555 20.296ZM4.74547 6.29599C4.34938 6.29599 4.15134 6.69599 4.05232 6.79599C3.9533 7.09599 3.85428 7.59599 4.25036 7.99599L7.41906 11.596C7.71612 11.996 7.71612 12.496 7.41906 12.896L4.25036 16.496C3.9533 16.896 3.9533 17.396 4.05232 17.696C4.15134 17.896 4.34938 18.296 4.74547 18.296H13.8555C14.5486 18.296 15.1427 17.996 15.6379 17.496L19.7968 13.096C20.1929 12.696 20.1929 11.996 19.7968 11.596L15.6379 7.19599C15.1427 6.59599 14.5486 6.29599 13.8555 6.29599H4.74547Z" fill="black"/>
</svg>

<svg xmlns="http://www.w3.org/2000/svg" fill="none" viewBox="0 0 24 25"><path fill="#000" d="M13.856 20.296h-9.11c-1.09 0-2.08-.7-2.476-1.7-.495-1.1-.297-2.5.495-3.4l2.575-2.9-2.575-2.9c-.792-.9-.99-2.3-.495-3.4s1.386-1.7 2.475-1.7h9.11c1.189 0 2.278.5 3.17 1.4l4.158 4.4c1.09 1.2 1.09 3.1 0 4.3l-4.159 4.5c-.891.9-1.98 1.4-3.169 1.4m-9.11-14c-.397 0-.595.4-.694.5-.099.3-.198.8.198 1.2l3.17 3.6c.296.4.296.9 0 1.3l-3.17 3.6c-.297.4-.297.9-.198 1.2.1.2.297.6.693.6h9.11c.694 0 1.288-.3 1.783-.8l4.159-4.4c.396-.4.396-1.1 0-1.5l-4.16-4.4q-.741-.9-1.782-.9z"/></svg>
